X: 22
T:Old Woman Tossed Up, Shakespeare MM version or transposition of CJS JG?
M:6/8
L:1/8
Q:1/4=120
A:Bidford
P:A(AB2)4A
K:G
P:A
|:DEF GAB|cdc BAG|cBA Adc|1BAG FED:|2BAG G3||
P:B
  ABc ABc|ABc d3 |ded ded| g2d B2A|
  DEF GAB|cdc BAG|cBA Adc| BAG G3||

